symbols/web/price_change/materialsymbolsoutlined/price_change_wght500_48px.svg

<svg xmlns="http://www.w3.org/2000/svg" height="48" width="48"><path d="M16.2 34.3h3v-2.25h2.4q.8 0 1.275-.6.475-.6.475-1.35v-5.75q0-.8-.475-1.375T21.6 22.4h-6.75v-3.45h8.5v-3H19.2V13.7h-3v2.25h-2.4q-.8 0-1.375.6t-.575 1.4v5.7q0 .8.575 1.275.575.475 1.375.475h6.55v3.65h-8.5v3h4.35Zm16.3-1.75 3-3h-6Zm-3-13.6h6l-3-3ZM7.1 40.3q-1.35 0-2.375-1.025T3.7 36.9V11.1q0-1.4 1.025-2.4t2.375-1h33.8q1.4 0 2.4 1t1 2.4v25.8q0 1.35-1 2.375T40.9 40.3Zm0-3.4h33.8V11.1H7.1v25.8Zm0 0V11.1v25.8Z"/></svg>

<svg xmlns="http://www.w3.org/2000/svg" height="48" width="48"><path d="M16.2 34.3H19.2V32.05H21.6Q22.4 32.05 22.875 31.45Q23.35 30.85 23.35 30.1V24.35Q23.35 23.55 22.875 22.975Q22.4 22.4 21.6 22.4H14.85V18.95H23.35V15.95H19.2V13.7H16.2V15.95H13.8Q13 15.95 12.425 16.55Q11.85 17.15 11.85 17.95V23.65Q11.85 24.45 12.425 24.925Q13 25.4 13.8 25.4H20.35V29.05H11.85V32.05H16.2ZM32.5 32.55 35.5 29.55H29.5ZM29.5 18.95H35.5L32.5 15.95ZM7.1 40.3Q5.75 40.3 4.725 39.275Q3.7 38.25 3.7 36.9V11.1Q3.7 9.7 4.725 8.7Q5.75 7.7 7.1 7.7H40.9Q42.3 7.7 43.3 8.7Q44.3 9.7 44.3 11.1V36.9Q44.3 38.25 43.3 39.275Q42.3 40.3 40.9 40.3ZM7.1 36.9Q7.1 36.9 7.1 36.9Q7.1 36.9 7.1 36.9V11.1Q7.1 11.1 7.1 11.1Q7.1 11.1 7.1 11.1Q7.1 11.1 7.1 11.1Q7.1 11.1 7.1 11.1V36.9Q7.1 36.9 7.1 36.9Q7.1 36.9 7.1 36.9ZM7.1 36.9H40.9Q40.9 36.9 40.9 36.9Q40.9 36.9 40.9 36.9V11.1Q40.9 11.1 40.9 11.1Q40.9 11.1 40.9 11.1H7.1Q7.1 11.1 7.1 11.1Q7.1 11.1 7.1 11.1V36.9Q7.1 36.9 7.1 36.9Q7.1 36.9 7.1 36.9Z"/></svg>
